flaticon/web-design/approve.svg

<svg xmlns="http://www.w3.org/2000/svg" width="32" height="32" viewBox="0 0 24 24">
    <path d="M 20.347656 1.988281 L 14.648438 1.988281 C 14.3125 0.820312 13.246094 0 12 0 C 10.753906 0 9.6875 0.820312 9.351562 1.988281 L 3.652344 1.988281 C 3.445312 1.988281 3.28125 2.15625 3.28125 2.359375 L 3.28125 23.628906 C 3.28125 23.832031 3.445312 24 3.652344 24 L 20.347656 24 C 20.554688 24 20.71875 23.832031 20.71875 23.628906 L 20.71875 2.359375 C 20.71875 2.15625 20.554688 1.988281 20.347656 1.988281 Z M 8.398438 3.949219 L 8.398438 2.734375 L 9.648438 2.734375 C 9.648438 2.734375 9.652344 2.734375 9.652344 2.734375 C 9.660156 2.734375 9.671875 2.730469 9.679688 2.730469 C 9.683594 2.730469 9.6875 2.730469 9.691406 2.730469 C 9.699219 2.730469 9.707031 2.726562 9.714844 2.726562 C 9.71875 2.726562 9.722656 2.726562 9.726562 2.722656 C 9.734375 2.722656 9.742188 2.722656 9.75 2.71875 C 9.753906 2.71875 9.757812 2.714844 9.761719 2.714844 C 9.769531 2.710938 9.777344 2.710938 9.785156 2.707031 C 9.789062 2.707031 9.792969 2.703125 9.796875 2.703125 C 9.804688 2.699219 9.808594 2.695312 9.816406 2.691406 C 9.820312 2.691406 9.824219 2.6875 9.828125 2.6875 C 9.835938 2.683594 9.839844 2.679688 9.847656 2.675781 C 9.851562 2.671875 9.855469 2.667969 9.859375 2.667969 C 9.867188 2.664062 9.871094 2.660156 9.878906 2.652344 C 9.882812 2.652344 9.882812 2.648438 9.886719 2.644531 C 9.894531 2.640625 9.898438 2.636719 9.90625 2.628906 C 9.90625 2.628906 9.910156 2.625 9.914062 2.621094 C 9.917969 2.617188 9.925781 2.609375 9.929688 2.605469 C 9.933594 2.601562 9.933594 2.597656 9.9375 2.59375 C 9.941406 2.589844 9.945312 2.582031 9.953125 2.578125 C 9.953125 2.574219 9.957031 2.570312 9.960938 2.566406 C 9.964844 2.558594 9.96875 2.554688 9.96875 2.546875 C 9.972656 2.542969 9.976562 2.539062 9.976562 2.535156 C 9.980469 2.527344 9.984375 2.523438 9.988281 2.515625 C 9.988281 2.511719 9.992188 2.503906 9.992188 2.5 C 9.996094 2.496094 9.996094 2.488281 10 2.484375 C 10 2.476562 10.003906 2.472656 10.007812 2.464844 C 10.007812 2.460938 10.007812 2.453125 10.011719 2.449219 C 10.011719 2.441406 10.011719 2.433594 10.015625 2.425781 C 10.015625 2.425781 10.015625 2.421875 10.015625 2.421875 C 10.179688 1.449219 11.011719 0.746094 12 0.746094 C 12.988281 0.746094 13.820312 1.449219 13.984375 2.421875 C 13.984375 2.421875 13.984375 2.425781 13.984375 2.429688 C 13.984375 2.433594 13.988281 2.441406 13.988281 2.445312 C 13.992188 2.453125 13.992188 2.457031 13.992188 2.460938 C 13.996094 2.46875 13.996094 2.472656 14 2.480469 C 14 2.484375 14.003906 2.492188 14.003906 2.496094 C 14.007812 2.5 14.007812 2.507812 14.011719 2.511719 C 14.015625 2.515625 14.015625 2.523438 14.019531 2.53125 C 14.023438 2.535156 14.023438 2.539062 14.027344 2.542969 C 14.03125 2.546875 14.035156 2.554688 14.039062 2.5625 C 14.039062 2.5625 14.042969 2.566406 14.042969 2.570312 C 14.050781 2.578125 14.054688 2.585938 14.058594 2.589844 C 14.0625 2.59375 14.0625 2.597656 14.066406 2.597656 C 14.070312 2.605469 14.078125 2.617188 14.085938 2.625 C 14.085938 2.625 14.085938 2.625 14.089844 2.625 C 14.097656 2.632812 14.105469 2.640625 14.113281 2.648438 C 14.117188 2.648438 14.121094 2.652344 14.125 2.65625 C 14.128906 2.660156 14.132812 2.664062 14.140625 2.667969 C 14.144531 2.671875 14.148438 2.671875 14.152344 2.675781 C 14.160156 2.679688 14.164062 2.683594 14.167969 2.683594 C 14.171875 2.6875 14.179688 2.691406 14.183594 2.691406 C 14.1875 2.695312 14.195312 2.699219 14.199219 2.699219 C 14.203125 2.703125 14.210938 2.703125 14.214844 2.707031 C 14.21875 2.707031 14.226562 2.710938 14.230469 2.710938 C 14.238281 2.714844 14.242188 2.714844 14.246094 2.71875 C 14.253906 2.71875 14.261719 2.722656 14.265625 2.722656 C 14.269531 2.722656 14.277344 2.726562 14.28125 2.726562 C 14.289062 2.726562 14.296875 2.730469 14.304688 2.730469 C 14.308594 2.730469 14.3125 2.730469 14.316406 2.730469 C 14.328125 2.730469 14.339844 2.734375 14.351562 2.734375 L 15.601562 2.734375 L 15.601562 4.96875 L 8.398438 4.96875 Z M 8.023438 5.714844 L 15.976562 5.714844 C 16.179688 5.714844 16.347656 5.546875 16.347656 5.339844 L 16.347656 4.324219 L 18.386719 4.324219 L 18.386719 18.085938 L 14.980469 18.085938 C 14.777344 18.085938 14.609375 18.253906 14.609375 18.460938 L 14.609375 21.863281 L 5.613281 21.863281 L 5.613281 4.324219 L 7.652344 4.324219 L 7.652344 5.339844 C 7.652344 5.546875 7.820312 5.714844 8.023438 5.714844 Z M 17.859375 18.832031 L 15.355469 21.335938 L 15.355469 18.832031 Z M 19.976562 23.253906 L 4.023438 23.253906 L 4.023438 2.734375 L 7.652344 2.734375 L 7.652344 3.578125 L 5.242188 3.578125 C 5.035156 3.578125 4.871094 3.746094 4.871094 3.949219 L 4.871094 22.234375 C 4.871094 22.441406 5.035156 22.609375 5.242188 22.609375 L 14.980469 22.609375 C 14.992188 22.609375 15.007812 22.609375 15.019531 22.605469 C 15.023438 22.605469 15.027344 22.605469 15.035156 22.605469 C 15.042969 22.601562 15.046875 22.601562 15.054688 22.601562 C 15.058594 22.601562 15.066406 22.597656 15.074219 22.597656 C 15.078125 22.59375 15.085938 22.59375 15.089844 22.59375 C 15.09375 22.589844 15.101562 22.589844 15.105469 22.585938 C 15.113281 22.585938 15.117188 22.582031 15.125 22.582031 C 15.128906 22.578125 15.136719 22.574219 15.140625 22.574219 C 15.144531 22.570312 15.152344 22.566406 15.15625 22.566406 C 15.164062 22.5625 15.167969 22.558594 15.171875 22.554688 C 15.175781 22.550781 15.183594 22.550781 15.1875 22.546875 C 15.195312 22.542969 15.199219 22.539062 15.203125 22.535156 C 15.207031 22.53125 15.214844 22.527344 15.21875 22.523438 C 15.226562 22.515625 15.234375 22.507812 15.242188 22.5 C 15.242188 22.5 15.246094 22.5 15.246094 22.5 L 19.019531 18.722656 C 19.023438 18.722656 19.023438 18.722656 19.023438 18.722656 C 19.03125 18.714844 19.039062 18.703125 19.046875 18.695312 C 19.050781 18.691406 19.050781 18.6875 19.054688 18.683594 C 19.058594 18.675781 19.0625 18.671875 19.066406 18.667969 C 19.070312 18.660156 19.074219 18.65625 19.078125 18.648438 C 19.082031 18.644531 19.082031 18.640625 19.085938 18.636719 C 19.089844 18.628906 19.09375 18.625 19.09375 18.617188 C 19.097656 18.613281 19.101562 18.609375 19.101562 18.601562 C 19.105469 18.597656 19.105469 18.589844 19.109375 18.585938 C 19.109375 18.578125 19.113281 18.574219 19.113281 18.566406 C 19.117188 18.5625 19.117188 18.554688 19.117188 18.550781 C 19.121094 18.542969 19.121094 18.539062 19.125 18.53125 C 19.125 18.527344 19.125 18.519531 19.125 18.511719 C 19.125 18.507812 19.128906 18.5 19.128906 18.496094 C 19.128906 18.484375 19.128906 18.472656 19.128906 18.460938 L 19.128906 3.949219 C 19.128906 3.746094 18.964844 3.578125 18.757812 3.578125 L 16.347656 3.578125 L 16.347656 2.734375 L 19.976562 2.734375 Z M 19.976562 23.253906"/>
    <path d="M 12 7.15625 C 9.382812 7.15625 7.253906 9.285156 7.253906 11.902344 C 7.253906 14.515625 9.382812 16.644531 12 16.644531 C 14.617188 16.644531 16.746094 14.515625 16.746094 11.902344 C 16.746094 9.285156 14.617188 7.15625 12 7.15625 Z M 12 15.902344 C 9.792969 15.902344 8 14.105469 8 11.902344 C 8 9.695312 9.792969 7.902344 12 7.902344 C 14.207031 7.902344 16 9.695312 16 11.902344 C 16 14.105469 14.207031 15.902344 12 15.902344 Z M 12 15.902344"/>
    <path d="M 14.25 9.949219 C 14.105469 9.800781 13.871094 9.800781 13.722656 9.949219 L 10.507812 13.164062 L 9.582031 12.234375 C 9.433594 12.085938 9.199219 12.085938 9.054688 12.234375 C 8.90625 12.378906 8.90625 12.613281 9.054688 12.761719 L 10.246094 13.953125 C 10.320312 14.027344 10.414062 14.0625 10.507812 14.0625 C 10.605469 14.0625 10.699219 14.027344 10.773438 13.953125 L 14.25 10.476562 C 14.398438 10.328125 14.398438 10.09375 14.25 9.949219 Z M 14.25 9.949219"/>
</svg>

<svg xmlns="http://www.w3.org/2000/svg" width="32" height="32" viewBox="0 0 24 24">
    <path d="M20.348 1.988h-5.7A2.747 2.747 0 0 0 12 0c-1.246 0-2.313.82-2.648 1.988h-5.7a.37.37 0 0 0-.37.371v21.27a.37.37 0 0 0 .37.371h16.696a.37.37 0 0 0 .37-.371V2.359a.37.37 0 0 0-.37-.37zM8.398 3.95V2.734h1.254c.008 0 .02-.004.028-.004h.011l.024-.003c.004 0 .008 0 .012-.004.007 0 .015 0 .023-.004.004 0 .008-.004.012-.004.008-.004.015-.004.023-.008.004 0 .008-.004.012-.004l.02-.012c.003 0 .007-.003.011-.003l.02-.012c.004-.004.007-.008.011-.008.008-.004.012-.008.02-.016.004 0 .004-.004.008-.007a.069.069 0 0 0 .02-.016l.007-.008.016-.016c.004-.003.004-.007.008-.011.003-.004.007-.012.015-.016 0-.004.004-.008.008-.012.004-.007.008-.011.008-.02.004-.003.008-.007.008-.01.003-.009.007-.013.011-.02l.004-.016c.004-.004.004-.012.008-.016 0-.007.004-.011.008-.02 0-.003 0-.01.004-.015 0-.008 0-.015.004-.023v-.004A2.003 2.003 0 0 1 12 .746c.988 0 1.82.703 1.984 1.676v.008c0 .004.004.011.004.015a.03.03 0 0 1 .004.016l.008.02c0 .003.004.011.004.015.004.004.004.012.008.016s.004.011.008.02c.003.003.003.007.007.011.004.004.008.012.012.02 0 0 .004.003.004.007.008.008.012.016.016.02s.004.008.007.008c.004.007.012.02.02.027h.004l.023.023c.004 0 .008.004.012.008s.008.008.016.012l.011.008c.008.004.012.008.016.008a.03.03 0 0 0 .016.007.03.03 0 0 0 .015.008c.004.004.012.004.016.008.004 0 .012.004.015.004.008.004.012.004.016.008.008 0 .016.004.02.004s.011.004.015.004l.024.003h.011c.012 0 .024.004.036.004h1.25V4.97H8.398zm-.375 1.766h7.954a.374.374 0 0 0 .37-.375V4.324h2.04v13.762H14.98a.374.374 0 0 0-.37.375v3.402H5.612V4.324h2.04V5.34c0 .207.167.375.37.375zm9.836 13.117l-2.504 2.504v-2.504zm2.118 4.422H4.023V2.734h3.63v.844h-2.41a.37.37 0 0 0-.372.371v18.285c0 .207.164.375.371.375h9.738c.012 0 .028 0 .04-.004h.015c.008-.003.012-.003.02-.003.004 0 .011-.004.02-.004.003-.004.01-.004.015-.004.004-.004.012-.004.015-.008.008 0 .012-.004.02-.004a.03.03 0 0 1 .016-.008.03.03 0 0 1 .015-.008.054.054 0 0 0 .016-.011c.004-.004.012-.004.015-.008a.054.054 0 0 0 .016-.012l.016-.012.023-.023h.004l3.774-3.777h.003l.024-.028c.004-.004.004-.008.008-.011.004-.008.008-.012.011-.016l.012-.02c.004-.003.004-.007.008-.011.004-.008.008-.012.008-.02.004-.004.008-.008.008-.015.003-.004.003-.012.007-.016 0-.008.004-.012.004-.02.004-.003.004-.011.004-.015l.008-.02v-.02c0-.003.004-.011.004-.015V3.95a.37.37 0 0 0-.371-.37h-2.41v-.845h3.629zm0 0"/>
    <path d="M12 7.156a4.751 4.751 0 0 0-4.746 4.746A4.75 4.75 0 0 0 12 16.645a4.75 4.75 0 0 0 4.746-4.743A4.751 4.751 0 0 0 12 7.156zm0 8.746c-2.207 0-4-1.797-4-4 0-2.207 1.793-4 4-4s4 1.793 4 4c0 2.203-1.793 4-4 4zm0 0"/>
    <path d="M14.25 9.95a.368.368 0 0 0-.527 0l-3.215 3.214-.926-.93a.368.368 0 0 0-.527 0 .368.368 0 0 0 0 .528l1.191 1.191a.37.37 0 0 0 .527 0l3.477-3.476a.368.368 0 0 0 0-.528zm0 0"/>
</svg>
